svgs/sharp-solid/utility-pole.svg

<svg xmlns="http://www.w3.org/2000/svg" viewBox="0 0 512 512"><!--! Font Awesome Pro 6.5.2 by @fontawesome - https://fontawesome.com License - https://fontawesome.com/license (Commercial License) Copyright 2024 Fonticons, Inc. --><path d="M288 0V32 64h96V56 32h48V56v8h32V56 32h48V56v8V96v24 8H480 428.8L288 221.9V288 480v32H224V480 288 221.9L83.2 128H32 0v-8V96 64 56 32H48V56v8H80V56 32h48V56v8h96V32 0h64zM140.8 128L224 183.4V128H140.8zM288 183.4L371.2 128H288v55.4z"/></svg>

<svg xmlns="http://www.w3.org/2000/svg" viewBox="0 0 512 512"><!--! Font Awesome Pro 6.6.0 by @fontawesome - https://fontawesome.com License - https://fontawesome.com/license (Commercial License) Copyright 2024 Fonticons, Inc. --><path d="M288 0l0 32 0 32 96 0 0-8 0-24 48 0 0 24 0 8 32 0 0-8 0-24 48 0 0 24 0 8 0 32 0 24 0 8-32 0-51.2 0L288 221.9l0 66.1 0 192 0 32-64 0 0-32 0-192 0-66.1L83.2 128 32 128 0 128l0-8L0 96 0 64l0-8L0 32l48 0 0 24 0 8 32 0 0-8 0-24 48 0 0 24 0 8 96 0 0-32 0-32 64 0zM140.8 128L224 183.4l0-55.4-83.2 0zM288 183.4L371.2 128 288 128l0 55.4z"/></svg>
